!!!!SEGMENT: Gsc1001e-Missa_Mijn_herte_altijt-Agnus.krn
!!!id: Gsc1001e
!!!AGN: Mass; Agnus
!!!voices: 2–4
!!!COM: Mathieu Gascongne
!!!OPR: Missa Mijn herte altijt
!!!OTL: Agnus
**kern	**kern	**kern	**kern
*part4	*part3	*part2	*part1
*staff4	*staff3	*staff2	*staff1
*I"Bassus	*I"Tenor	*I"Altus	*I"Superius
*I'B	*I'T	*I'A	*I'S
*clefF4	*clefGv2	*clefG2	*clefG2
*k[]	*k[]	*k[]	*k[]
*C:	*C:	*C:	*C:
*M2/1	*M2/1	*M2/1	*M2/1
*met(C|)	*met(C|)	*met(C|)	*met(C|)
!!section: Agnus Dei I
!!!OMD: Agnus Dei I
=1	=1	=1	=1
0r	0r	0g	0r
=2	=2	=2	=2
0r	0r	1g	0dd
.	.	1g	.
=3	=3	=3	=3
0r	0r	1d	1dd
.	.	2r	1dd
.	.	[2d	.
=4	=4	=4	=4
0r	0r	4d]	1a
.	.	4e	.
.	.	4f	.
.	.	4d	.
.	.	2e	1cc
.	.	[2f	.
=5	=5	=5	=5
0r	0r	2f]	2dd
.	.	4e	1ff
.	.	4d	.
.	.	[1a	.
.	.	.	4ee
.	.	.	4dd
=6	=6	=6	=6
0r	0r	2a]	1ee
.	.	2g	.
.	.	1f	1a
=7	=7	=7	=7
0G	0r	1e	1b
.	.	1d	[1dd
=8	=8	=8	=8
1G	0d	1r	2dd]
.	.	.	2cc
1G	.	1g	1b
=9	=9	=9	=9
1D	1d	2f	0a
.	.	2.d	.
2r	1d	.	.
.	.	4e	.
[2D	.	4f	.
.	.	4d	.
=10	=10	=10	=10
4D]	1A	2f	0r
4E	.	.	.
4F	.	2a	.
4D	.	.	.
2E	1c	2g	.
[2F	.	2a	.
=11	=11	=11	=11
2F]	2d	2.A	1.a
4E	1f	.	.
4D	.	4B	.
[1A	.	2c	.
.	4e	2A	2b
.	4d	.	.
=12	=12	=12	=12
2A]	1e	1.a	2cc
2B	.	.	2dd
1c	1A	.	1ee
.	.	2g	.
=13	=13	=13	=13
1d	1r	2f	2a
.	.	4e	1dd
.	.	4d	.
1A	1e	1a	.
.	.	.	2cc
=14	=14	=14	=14
2r	1f	1.a	2dd
1A	.	.	4a
.	.	.	4b
.	2e	.	4cc
.	.	.	4a
2B	[2g	4g	[2dd
.	.	4f	.
=15	=15	=15	=15
1c	2g]	2.e	4dd]
.	.	.	4cc
.	4f	.	1cc
.	4e	4f	.
1G	1d	1g	.
.	.	.	2b
=16	=16	=16	=16
1r	1c	2.e	0cc
.	.	4d	.
1A	1r	2e	.
.	.	[2f	.
=17	=17	=17	=17
1B	1d	2f]	2r
.	.	4e	2.ff
.	.	4d	.
2A	2.c	[1e	.
.	.	.	4ee
[2c	.	.	[2ee
.	4B	.	.
=18	=18	=18	=18
2c]	2A	2e]	2ee]
4B	2c	2f	4dd
4A	.	.	4cc
1G	2d	1g	1b
.	2e	.	.
=19	=19	=19	=19
1F	1A	1c	2a
.	.	.	2.cc
1r	1f	1r	.
.	.	.	4b
.	.	.	2a
=20	=20	=20	=20
0r	2e	0r	2g
.	1d	.	1f
.	4c	.	4e
.	4B	.	4d
=21	=21	=21	=21
0r	2A	1r	2f
.	1d	.	2g
.	.	1cc	1e
.	2c	.	.
=22	=22	=22	=22
0r	1d	2b	1d
.	.	1a	.
.	2A	.	1r
.	[2c	4g	.
.	.	4f	.
=23	=23	=23	=23
0r	2c]	2e	1r
.	4B	1a	.
.	4A	.	.
.	1B	.	1r
.	.	2g#i	.
=24	=24	=24	=24
2r	1A	1a	1r
2.F	.	.	.
.	1a	2r	1ff
4G	.	.	.
4A	.	[2cc	.
4B	.	.	.
=25	=25	=25	=25
2c	2g	2cc]	2ee
2d	1f	4b	2dd
.	.	4a	.
2B	.	2b	2dd
2c	4e	[2a	4cc
.	4d	.	4b
=26	=26	=26	=26
2d	2f	4a]	2a
.	.	4f	.
2G	2g	2b-i	1dd
1A	1e	2.a	.
.	.	.	2cc#i
.	.	4g	.
=27	=27	=27	=27
1D	0d	4f	0dd
.	.	4e	.
.	.	1f	.
1r	.	.	.
.	.	4e	.
.	.	4d	.
=28	=28	=28	=28
0A	2r	1c	0r
.	1e	.	.
.	.	1r	.
.	2f	.	.
=29	=29	=29	=29
1A	2e	0r	0r
.	1f	.	.
1D	.	.	.
.	4e	.	.
.	4d	.	.
=30	=30	=30	=30
0A	1c	0a	2r
.	.	.	1ee
.	1r	.	.
.	.	.	2ff
=31	=31	=31	=31
0r	0r	1a	2ee
.	.	.	1ff
.	.	1d	.
.	.	.	4ee
.	.	.	4dd
=32	=32	=32	=32
2r	1r	0a	0cc
1A	.	.	.
.	2r	.	.
4G	[2e	.	.
4F	.	.	.
=33	=33	=33	=33
2G	2e]	1r	0r
2A	4d	.	.
.	4c	.	.
2D	2d	2r	.
2F	2c	2A	.
=34	=34	=34	=34
1E	1g	2B	0r
.	.	2c	.
2D	1f	2d	.
[2A	.	[2c	.
=35	=35	=35	=35
2A]	2e	2c]	0r
4G	2.g	4B	.
4F	.	4A	.
2E	.	2c	.
.	4f	.	.
2G	[2e	[2B	.
=36	=36	=36	=36
1F	2e]	2B]	1r
.	2d	2A	.
1E	1e	2B	2r
.	.	[2b	[2gg
=37	=37	=37	=37
0r	2r	4b]	4gg]
.	.	4a	4ff
.	2e	1cc	4ee
.	.	.	4dd
.	1g	.	2ee
.	.	[2b	[2dd
=38	=38	=38	=38
0r	1f	4b]	4dd]
.	.	4a	4cc
.	.	1a	4b
.	.	.	4a
.	1e	.	1b
.	.	2g	.
=39	=39	=39	=39
2r	1r	1a	2.a
1A	.	.	.
.	.	.	4b
.	2r	[1b	4cc
.	.	.	4dd
2G	[2g	.	[2ee
=40	=40	=40	=40
1B	4g]	2b]	4ee]
.	4f	.	4dd
.	4e	2g	1dd
.	4d	.	.
1A	1e	1a	.
.	.	.	2cc#i
=41	=41	=41	=41
1D	2r	1f	[0dd
.	2.d	.	.
[1G	.	[1g	.
.	4c	.	.
.	4B	.	.
.	4A	.	.
=42	=42	=42	=42
1G]	1B	2g]	1dd]
.	.	4f	.
.	.	4g	.
1F	1A	1a	2r
.	.	.	[2dd
=43	=43	=43	=43
0G	[0dl	2g	4dd]
.	.	.	4cc
.	.	1g	4b
.	.	.	4a
.	.	.	1b
.	.	4f	.
.	.	4e	.
=44	=44	=44	=44
00Dl	00d]	00f	00a 00dd>
=45||	=45||	=45||	=45||
*M2/1	*M2/1	*M2/1	*M2/1
*met(C|)	*met(C|)	*met(C|)	*met(C|)
!!section: Agnus Dei II
!!!OMD: Agnus Dei II
0r	0r	0r	0a
=46	=46	=46	=46
0r	0r	0r	1a
.	.	.	[1b
=47	=47	=47	=47
0r	0r	0d	2b]
.	.	.	2a
.	.	.	1a
=48	=48	=48	=48
0r	0r	1d	1.dd
.	.	[1e	.
.	.	.	4cc
.	.	.	4b
=49	=49	=49	=49
0r	0r	2e]	1cc
.	.	2d	.
.	.	1d	[1ff
=50	=50	=50	=50
0r	0r	1.g	2ff]
.	.	.	4ee
.	.	.	4dd
.	.	.	1ee
.	.	4f	.
.	.	4e	.
=51	=51	=51	=51
0r	0r	1f	1a
.	.	[1b-i	[1dd
=52	=52	=52	=52
0r	0r	2b-]	2dd]
.	.	4a	4cc
.	.	4g	4b
.	.	1a	2.cc
.	.	.	4dd
=53	=53	=53	=53
0r	0r	1d	2b
.	.	.	2dd
.	.	[1g	4dd
.	.	.	4cc
.	.	.	4b
.	.	.	4a
=54	=54	=54	=54
0r	0r	2g]	2b
.	.	4f	1cc
.	.	4e	.
.	.	2.f	.
.	.	.	4b
.	.	4g	4a
=55	=55	=55	=55
0r	0r	2e	1cc
.	.	1a	.
.	.	.	1b
.	.	2g#i	.
=56	=56	=56	=56
0r	0r	1a	0a
.	.	1r	.
=57	=57	=57	=57
0r	0r	1d	1r
.	.	[1f	1a
=58	=58	=58	=58
0r	0r	2f]	1.cc
.	.	2g	.
.	.	[1a	.
.	.	.	2dd
=59	=59	=59	=59
0r	0r	2a]	1.ee
.	.	4g	.
.	.	4f	.
.	.	2e	.
.	.	2f	4dd
.	.	.	4cc
=60	=60	=60	=60
0r	0r	1g	2b
.	.	.	2cc
.	.	1d	1dd
=61	=61	=61	=61
0r	0r	1r	1a
.	.	1a	1r
=62	=62	=62	=62
0r	0r	1.cc	1ee
.	.	.	[1gg
.	.	4b	.
.	.	4a	.
=63	=63	=63	=63
0r	0r	2g	2gg]
.	.	2a	4ff
.	.	.	4ee
.	.	1b	2dd
.	.	.	2ee
=64	=64	=64	=64
0r	0r	2.a	1ff
.	.	4f	.
.	.	2g	1ee
.	.	2a	.
=65	=65	=65	=65
0r	0r	2f	2dd
.	.	2e	2.ee
.	.	2.a	.
.	.	.	4dd
.	.	.	4cc
.	.	4g	4b
=66	=66	=66	=66
0r	0r	4f	2a
.	.	4e	.
.	.	2d	1dd
.	.	2.f	.
.	.	.	4cc
.	.	4g	4b
=67	=67	=67	=67
0r	0r	4a	2.cc
.	.	4b	.
.	.	1cc	.
.	.	.	4dd
.	.	.	4ee
.	.	.	4ff
.	.	4b	[2gg
.	.	4a	.
=68	=68	=68	=68
0r	0r	4g	4gg]
.	.	4f	4cc
.	.	2a	1ff
.	.	1g	.
.	.	.	2ee
=69	=69	=69	=69
0r	0r	1f	0ff
.	.	2r	.
.	.	2f	.
=70	=70	=70	=70
0r	0r	1g	0r
.	.	1b-i	.
=71	=71	=71	=71
0r	0r	1a	2r
.	.	.	2cc
.	.	2g	1dd
.	.	[2f	.
=72	=72	=72	=72
0r	0r	2f]	1ff
.	.	4e	.
.	.	4d	.
.	.	2c	2ee
.	.	[2d	[2ff
=73	=73	=73	=73
0r	0r	4d]	2ff]
.	.	4e	.
.	.	4f	4ee
.	.	4g	4dd
.	.	2a	2cc
.	.	2d	[2dd
=74	=74	=74	=74
0r	0r	2r	4dd]
.	.	.	4a
.	.	1a	2cc
.	.	.	1b
.	.	2g#i	.
=75	=75	=75	=75
0r	0r	2.a	2a
.	.	.	4cc
.	.	4g	4b
.	.	4f	4a
.	.	4e	4g
.	.	[2f	[2a
=76	=76	=76	=76
0r	0r	4f]	2a]
.	.	4e	.
.	.	1d	4g
.	.	.	4f
.	.	.	2e
.	.	2c	[2a
=77	=77	=77	=77
0r	0r	2d	4a]
.	.	.	4b
.	.	4A	4cc
.	.	4B	4dd
.	.	4c	2ee
.	.	4d	.
.	.	2e	4cc
.	.	.	4dd
=78	=78	=78	=78
0r	0r	4c	4ee
.	.	4d	4ff
.	.	4e	2.gg
.	.	4f	.
.	.	2g	.
.	.	.	4ff
.	.	[2a	4ee
.	.	.	4dd
=79	=79	=79	=79
0r	0r	2a]	2cc
.	.	4g	1dd
.	.	4f	.
.	.	1e	.
.	.	.	2cc#i
=80	=80	=80	=80
00r	00r	00dl	00ddl
==	==	==	==
*-	*-	*-	*-
!!!system-decoration: [*]
!!!RDF**kern: i = editorial accidental
!!!RDF**kern: l = terminal long
!!!PTL: Occo Codex Edition
!!!PPR: The CMME Project
!!!PDT: 2008
!!!PED: Marnix van Berchum
!!!YEC: Copyright 2008 The CMME Project
!!!EED: Benjamin Ory
!!!EEV: 2025/5/8
!!!verovio: header encoded
!!!header-left: Transcribed by @{PED}\n@{PTL}, @{PPR}\n
!!!header-right:
!!!header-center: